X:871
T:Reel 871
M:4/4
K:Gmaj
L:1/8
d|g3a gfed|Bdgd Bdac'|bggf gfag|bd'af gfdg|B2Bd gfeg|Bcdg fgac'|bgaf gedB|c2Ac BGG|c'|bgd'g bgd'g|bgd'g bggb|agfg abc'b|abc'd' e'c'ac'|bgd'g bgd'g|bgd'g c'aag|bd'c'd' baaf|geac BGG|
